X:1
T:Title
%%score { ( 1 3 ) | ( 2 4 ) }
L:1/8
Q:1/4=100
M:4/4
K:C
V:1 treble nm="Grand Piano"
V:3 treble 
V:2 bass 
V:4 bass 
V:1
 E2 C>E G2 z2 | G2 E>G cc/c/ GE | CEGc EGc[Ge] | d2 d2 d/G/B/d/ g2 | %4
w: W.~A.~Post * * *||||
 [Ad]2 [CDA]>[CDA] [CDA]2 [DGB]2 | [CGc]2 [B,FG]>[B,FG] [CEG]2 [CG]2 | %6
w: ||
 [CFA]>[CFA] [DGB][DGB] [CGc][CEG][CGc][Ge] | G2 z2 z4 | .[G,E]2 .[G,E]2 .[G,E]2 .[G,EG]2 | e6 z2 | %10
w: ||||
 B6 z2 | B6 z2 | A4 z4 | [Ge]6 z2 | z2 .C2 C[Af][Ae][DAd] | [EGc]2 [EGc]2 [DFB]2 F-[FB] | %16
w: ||||||
 c2- [A,Fc-][A,Fc-] [G,Ec]2 z2 | .[G,E]2 .[G,E]2 .[G,E]2 .[G,EG]2 | e2- [Ee-]2 [Ee]B[Ed][Ec] | %19
w: |||
 .F2 z2 z4 | .F2 z2 z4 | A2- [A,_EA]2 [G,=EG]2 Gc | [Ge]6 z2 | z2 .C2 C[Af][Ae][DAd] | %24
w: |||||
 [EGc]2 [EGc]2 [DFB]2 F-[FB] | c2- [A,Fc-][A,Fc-] [G,Ec]2 z2 |] %26
w: ||
V:2
 E,2 C,>E, G,G,/G,/ CE | G,2 E,>G, C2 z2 | C,E,G,C E,G,C[C,C] | [G,B,G]2 [G,B,G]2 z4 | %4
 [^F,C]2 F,>F, F,2 =F,2 | E,2 D,>D, C,2 E,2 | F,>F, F,F, E,G,E,[C,C] | z2 F2 C,4 | %8
 .C,2 .C,2 .C,2 C,[K:treble]c | .[C,G,]2 .[G,,G,]2 .[C,G,]2 [C,G,][C,G,] | %10
 .[D,G,]2 .G,,2 .D,2 G,,G,, | .[D,G,]2 .G,,2 D,GG,,F | C,B,C,^F, C,2 EE | %13
 .[C,C]2 .C,2 C,G[D,B,][E,C] | .[F,C]2 .F,2 F,[D,D][E,^C]F, | G,2 G,2 G,,2 z D | C,2 C,C, C,2 z2 | %17
 .C,2 .C,2 .C,2 C,[K:treble]c | .[C,G,]2 .[G,,G,]2 .[C,G,]2 [C,G,][C,G,] | %19
 .[D,G,]2 .G,,2 .D,2 G,,G,, | .[D,G,]2 .G,,2 D,GG,,F | C,B,C,^F, C,2 EE | %22
 .[C,C]2 .C,2 C,G[D,B,][E,C] | .[F,C]2 .F,2 F,[D,D][E,^C]F, | G,2 G,2 G,,2 z D | C,2 C,C, C,2 z2 |] %26
V:3
 x8 | x8 | x8 | x8 | x8 | x8 | x8 | [B,d]4 [CEc]4 | x8 | .E2 .E2 EB[Ed][Ec] | %10
 .F2 .[G,F]2 .[G,F]2 [B,FA][B,FG] | .F2 .[G,F]2 .[G,F]2 [B,FA]B | .[C_E]2 .[A,E]2 [G,=EG]2 Gc | %13
 z2 .C2 Ce[Gd][Gc] | [FA]6 z2 | z4 z2 .[CA]2 | [CE]2 z2 z4 | x8 | .E2 z2 z4 | %19
 B2- [G,FB-]2 [G,FB]2 [B,FA][B,FG] | B2- [G,FB-]2 [G,FB]2 [B,FA]B | .[C_E]2 z2 z4 | %22
 z2 .C2 Ce[Gd][Gc] | [FA]6 z2 | z4 z2 .[CA]2 | [CE]2 z2 z4 |] %26
V:4
 x8 | x8 | x8 | x8 | x8 | x8 | x8 | G,,4 z4 | x7[K:treble] x | x8 | x8 | x8 | x8 | x8 | x8 | %15
 z4 z2 G,,2 | x8 | x7[K:treble] x | x8 | x8 | x8 | x8 | x8 | x8 | z4 z2 G,,2 | x8 |] %26

